X:98
T:Nancy Dawson's Fancy
M:C
L:1/8
B:Thompson's Compleat Collection of 200 Favourite Country Dances, vol. 2 (London, 1765)
Z:Transcribed and edited by Flynn Titford-Mock, 2007
Z:abc's:AK/Fiddler's Companion
K:G
d/c/ | BGdB A/G/F/E/ Dc | BGgB {B}A3c | Bgfe dBec | {c}B2 {B}"tr"A2 G3 :|
|: (3e/f/g/ | fe/d/ e2 dc/B/ c2 | BGgB A3g | fdec dc/B/ ec | {c}B2 {B}"tr"A2 G3 :|

